X:1
T: John Bain's Sister's Wedding
C:
R:Jig
Q:180
K:Am
M:6/8
L:1/16
|:e2|c4A2 A2A2A2|a2g2f2 e4d2|c4A2 A2A2A2|d4c2 B4d2|
c4A2 A2A2A2|a2g2f2 e4d2|c4A2 B2G2B2|A6A4:|
|:e2|A4B2 c4c2|d4d2 d2B2c2|d4c2 B2c2d2|e4A2 A4e2|
f4g2 a2g2f2|e4d2 c4a2|c4A2 B2G2B2|A6A4:|
